icon/pk/monitor-two.svg

<svg viewBox="0 0 48 48" fill="none" xmlns="http://www.w3.org/2000/svg" height="1em" width="1em">
  <path d="M42.5 16.3869C41.5521 14.0859 40.1874 12.0006 38.5 10.225C34.8561 6.39055 29.7072 4 24 4C12.9543 4 4 12.9543 4 24H14L19 32L28 14L35 24H44C44 35.0457 35.0457 44 24 44C18.5491 44 13.6075 41.8194 10 38.2829C8.17976 36.4985 6.69917 34.3688 5.66417 32" stroke="black" stroke-width="4" stroke-linecap="round" stroke-linejoin="round"/>
</svg>

<svg width="48" height="48" fill="none" xmlns="http://www.w3.org/2000/svg"><path d="M42.5 16.387a20.018 20.018 0 0 0-4-6.162A19.943 19.943 0 0 0 24 4C12.954 4 4 12.954 4 24h10l5 8 9-18 7 10h9c0 11.046-8.954 20-20 20-5.45 0-10.393-2.18-14-5.717A20.04 20.04 0 0 1 5.664 32" stroke="#000" stroke-width="4" stroke-linecap="round" stroke-linejoin="round"/></svg>
